svg/align-right.svg

<svg xmlns="http://www.w3.org/2000/svg" viewBox="0 0 64 48" enable-background="new 0 0 64 48"><style type="text/css">.st0{fill:#333333;}</style><title>align-right</title><desc>Created with Sketch.</desc><path class="st0" d="M64 3c0-1.7-1.3-3-3-3h-58c-1.7 0-3 1.3-3 3s1.3 3 3 3h58c1.7 0 3-1.3 3-3zM61 28h-44c-1.7 0-3 1.3-3 3s1.3 3 3 3h44c1.7 0 3-1.3 3-3s-1.3-3-3-3zM61 14h-26c-1.7 0-3 1.3-3 3s1.3 3 3 3h26c1.7 0 3-1.3 3-3s-1.3-3-3-3zM61 42h-20c-1.7 0-3 1.3-3 3s1.3 3 3 3h20c1.7 0 3-1.3 3-3s-1.3-3-3-3z"/></svg>

<?xml version="1.0" encoding="utf-8"?>
<!-- Generator: Adobe Illustrator 21.0.0, SVG Export Plug-In . SVG Version: 6.00 Build 0)  -->
<svg version="1.1" id="Layer_1" xmlns="http://www.w3.org/2000/svg" xmlns:xlink="http://www.w3.org/1999/xlink" x="0px" y="0px"
	 viewBox="0 0 64 48" style="enable-background:new 0 0 64 48;" xml:space="preserve">
<style type="text/css">
	.st0{fill:#333333;}
</style>
<title>align-right</title>
<desc>Created with Sketch.</desc>
<g>
	<path class="st0" d="M64,3c0-1.7-1.3-3-3-3H3C1.3,0,0,1.3,0,3s1.3,3,3,3h58C62.7,6,64,4.7,64,3z"/>
	<path class="st0" d="M61,28H17c-1.7,0-3,1.3-3,3s1.3,3,3,3h44c1.7,0,3-1.3,3-3S62.7,28,61,28z"/>
	<path class="st0" d="M61,14H35c-1.7,0-3,1.3-3,3s1.3,3,3,3h26c1.7,0,3-1.3,3-3S62.7,14,61,14z"/>
	<path class="st0" d="M61,42H41c-1.7,0-3,1.3-3,3s1.3,3,3,3h20c1.7,0,3-1.3,3-3S62.7,42,61,42z"/>
</g>
</svg>
